build/security/IncognitoOutline.svg

<svg xmlns="http://www.w3.org/2000/svg" fill="none" viewBox="0 0 24 24" focusable="false"><path d="M0 0H24V24H0z"/><path fill="#74767B" fill-rule="evenodd" d="M19.1511 12.0749L17.737 4.9688C17.503 3.79314 16.2737 3.10492 15.1492 3.52005L12.9658 4.32605C12.4406 4.51994 11.8634 4.51994 11.3381 4.32605L9.15176 3.51894C8.02876 3.10438 6.80083 3.79014 6.56475 4.9637L5.13422 12.0749L3.64988 12.0749C3.29089 12.0749 2.99988 12.3659 2.99988 12.7249C2.99988 13.0838 3.29089 13.3749 3.64988 13.3749L20.3499 13.3749C20.7089 13.3749 20.9999 13.0838 20.9999 12.7249C20.9999 12.3659 20.7089 12.0749 20.3499 12.0749L19.1511 12.0749ZM8.70156 4.73849C8.32722 4.60031 7.91791 4.82889 7.83922 5.22008L6.46026 12.0749L17.8256 12.0749L16.462 5.22252C16.384 4.83063 15.9742 4.60123 15.5994 4.7396L13.416 5.54561C12.6002 5.84676 11.7037 5.84676 10.8879 5.54561L8.70156 4.73849ZM5.14231 16.0641C5.14231 15.3409 5.725 14.7547 6.44379 14.7547L17.8403 14.7547C18.5591 14.7547 19.1418 15.3409 19.1418 16.0641L19.1418 17.5808C19.1418 19.2497 17.7971 20.6026 16.1384 20.6026L15.891 20.6026C14.2323 20.6026 12.8876 19.2497 12.8876 17.5808L12.8876 16.8101C12.8876 16.3981 12.5537 16.0642 12.1417 16.0642C11.7297 16.0642 11.3958 16.3981 11.3958 16.8101L11.3958 17.5808C11.3958 19.2497 10.0511 20.6026 8.39236 20.6026L8.14573 20.6026C6.48699 20.6026 5.14231 19.2497 5.14231 17.5808L5.14231 16.0641ZM10.0943 16.4642C10.0943 16.2433 9.91522 16.0642 9.69431 16.0642L6.8438 16.0641C6.62288 16.0641 6.44379 16.2432 6.44379 16.4641L6.44379 17.5808C6.44379 18.5265 7.20578 19.2932 8.14573 19.2932L8.39236 19.2932C9.33232 19.2932 10.0943 18.5265 10.0943 17.5808L10.0943 16.4642ZM14.5891 16.0642C14.3682 16.0642 14.1891 16.2433 14.1891 16.4642L14.1891 17.5808C14.1891 18.5265 14.9511 19.2932 15.891 19.2932L16.1384 19.2932C17.0784 19.2932 17.8403 18.5265 17.8403 17.5808L17.8403 16.4641C17.8403 16.2432 17.6613 16.0641 17.4403 16.0641L14.5891 16.0642Z"/></svg>

<svg xmlns="http://www.w3.org/2000/svg" fill="none" viewBox="0 0 24 24" focusable="false"><path fill="#74767B" fill-rule="evenodd" d="m17.73 4.96 1.42 7.11h1.19c.36 0 .65.29.65.65s-.29.65-.65.65H3.64c-.35 0-.65-.29-.65-.65s.3-.65.65-.65h1.49l1.43-7.11a1.96 1.96 0 0 1 2.59-1.45l2.18.81c.53.19 1.11.19 1.63 0l2.18-.8c1.13-.42 2.36.27 2.59 1.44m-9.9.26c.08-.4.49-.62.87-.49l2.18.81c.82.3 1.72.3 2.53 0l2.18-.81c.38-.13.79.1.87.49l1.36 6.85H6.46zM5.14 16.06c0-.72.58-1.31 1.3-1.31h11.4c.71 0 1.3.59 1.3 1.31v1.52c0 1.66-1.35 3.02-3.01 3.02h-.24c-1.66 0-3.01-1.36-3.01-3.02v-.77a.74.74 0 0 0-.74-.75c-.42 0-.75.33-.75.75v.77c0 1.66-1.34 3.02-3 3.02h-.25c-1.66 0-3-1.36-3-3.02zm4.95.4c0-.22-.18-.4-.4-.4H6.84c-.22 0-.4.18-.4.4v1.12c0 .94.76 1.71 1.7 1.71h.25c.94 0 1.7-.77 1.7-1.71zm4.49-.4c-.22 0-.4.18-.4.4v1.12c0 .94.77 1.71 1.71 1.71h.24c.94 0 1.71-.77 1.71-1.71v-1.12c0-.22-.18-.4-.4-.4z"/></svg>
